X:1
T:Musae Iovis
T:Musae Iovis
T:Benedictus Appenzeller
C:Benedictus Appenzeller
%%score [ 1 [ 2 3 ] 4 ]
L:1/8
Q:1/4=80
M:2/2
K:C
V:1 treble nm="Superius" snm="S"
V:2 treble-8 nm="Tenor 1" snm="T 1"
V:3 treble-8 nm="Tenor 2" snm="T 2"
V:4 bass nm="Bass" snm="B"
V:1
 z8 | z8 | z8 | z8 | z4 B4- | B4 A4 | c6 B2 | G2 A2 B4- | B2 E2 E4- | E2 DC G4 | z2 d4 c2 | %11
w: ||||Mu-|* sae|Jo- vis|ter ma- *|* * xi-|* * * mi,|mu- *|
w: |||||||||||
 A2 B2 cB AG | A4 A2 A2- | A2 D2 D4 | z2 G4 FE | F3 G AB A2- | A2 G4 F2 | E3 F EDCB, | C8- | C8 | %20
w: sae Jo- vis _ _ _|_ ter ma-|* xi- mi,|ter _ _|_ _ _ _ _|* ma- *|* * xi- * * *|mi|_|
w: |||||||||
 z8 | z2 E2 E2 C2 | F4 E2 c2- | cB A2 A2 G2 | F2 E3 FGA | G3 F ED E2 | A,2 A2 A2 G2 | c3 B AG A2 | %28
w: |pro- les ca-|no- ra, [pro-|* * les ca- no-|||ra,] pro- les ca-|no- * * * *|
w: ||||||||
 G4 z2 G2- | G2 G2 G4 | z2 G4 E2 | E3 F ED C2- | C2 B,A, B,2 E2- | E2 C2 C2 c2- | c2 BA B2 c2- | %35
w: ra, plan|_ gi- te,|plan- gi-|te _ _ _ _|_ _ _ _ plan|_ gi- te, [plan|_ _ _ _ gi-|
w: |||||||
 cB A4 GF | G2 A2 D4 | z2 G2 G2 E2 | A6 G2 | F3 E D4 | G6 FE | F2 G2 A2 c2 | B2 A4 G2 |: A4 z2 E2 | %44
w: |* * te,]|co- mas cy-|pres- sus|com _ _|pri- * *|||mat, Jos-|
w: ||||||||2..cus,- *|
 G6 E2 | F6 ED | E4 z2 G2- | G2 G2 A2 G2 | G4 z2 G2- | G2 G2 A2 G2 | G4 z4 | z2 B2 d2 A2 | %52
w: qui- nus|il- * *|le, il-|* le oc- ci-|dit, il-|* le oc- ci-|dit,|tem- plo- rum|
w: ||||||||
 c2 B2- BA A2- | A2 G2 A4 | z2 E2 G2 DE |1 FG A2- AG/F/ G2 :|2 FG A2- AG/F/ G2 || A8- | A8- | A8- | %60
w: de- * * * *|* * cus,|et ve- strum _|_ _ de- * * * *|||||
w: ||||||||
 A8 || G8 | G4 G4 | G8- | G8 | z4 B4 | B4 c4 | B8 | z4 G4 | F4 E4 | D4 z4 | D8 | D4 E4 | F6 F2 | %74
w: |Se-|ve- ra|mors,|_|se-|ve- ra|mors|et|im- pro-|ba|quae|tem- pla|dul- ci-|
w: ||||||||||||||
 F4 G4 | C2 c3 B A2 | AGFE D2 G2- | GFED C2 D2 | G,2 G3 F E2- | E2 DC B,2 B,2 | B3 A B2 c2- | %81
w: bus so-|nis pri- * *||||* * * * vas,|[pri- * * *|
w: |||||||
 c2 BA G4 | z8 | z8 | z2 c2 B2 c2 | A6 G2 | G4 z2 G2 | C2 FG AB c2- | c2 BA G2 A2 | E2 G4 F2- | %90
w: * * * vas,]|||et au- las|prin- ci-|pum, [et|au- * * * * *||las prin- *|
w: |||||||||
 FE E4 D2 | E8 | z4 G4 | c6 d2 | c2 B2 A2 c2 | d3 c BA G2- | G2 F2 G4 | z2 G2 c4- | c2 d2 c2 B2 | %99
w: * * * ci-|pum,]|ma-|lum ti-|bi quod im- pre-|cer, _ _ _ _|_ _ _|ma- lum|_ ti- bi quod|
w: |||||||||
 A3 G F3 E | D2 G4 F2 | G2 A2 G4 | z2 G2 c4- | c2 B2 A2 G2 | F4 E4 | D8 | z8 | z4 z2 G2 | c6 B2 | %109
w: im- * * *||* pre- cer,|ma- lum|_ ti- bi quod|im- pre-|cer,||ma-|lum ti-|
w: ||||||||||
 A2 G2 F4 | E4 D3 E | FG A2 AG G2- | GF/E/ F2 G4 | z2 E2 A2 G2 |: c4 B4- | B2 E2 F2 G2 | %116
w: bi quod im-|||* * * pre- cer,|tol- len- ti|bo- nos,|_ par- cen- ti|
w: |||||||
 A3 B cB c2- | cB A4 G2 | A4 E4 | z2 GF ED E2- | E2 DC B,A, B,2 | A,4 z4 |1 z2 E2 A2 G2 :|2 E8- || %124
w: ma- * * * *|||||lis,|tol- len- ti|lis.|
w: ||||||||
 E8 |] %125
w: _|
w: |
V:2
 z8 | z8 | z8 | z8 | e8 | d4 f4- | f2 e2 c2 d2 | e6 e2 | e3 d cB c2- | c2 BA B2 g2- | %10
w: ||||Mu|sae Jo-|* vir ter ma-|* xi-|mi _ _ _ pro-|* * * les, Mu-|
 g2 f2 d2 a2- | a2 gf edcB | c2 d3 e f2 | F2 G4 G2 | G4 z2 G2 | _B2 A3 GAB | cd e4 d2 | %17
w: * sae Jo- *||* * * vis|ter ma- xi-|mi, ter|ma- * * * *||
 c2 BA B2 A2 | A8 | z2 e2 e3 c | e2 f2 f2 ed | c3 B A2 e2- | ec d2 e4- | e2 f3 e d2- | d2 c3 B e2 | %25
w: * * * * xi-|mi,|pro- les ca-|no- ra, pro- * *|les ca- no- *|* * * ra,|_ _ _ _|* pro- * *|
 e2 e2 g4 | c4 z2 e2 | e2 c2 f4 | e4 z2 e2- | e2 e2 e4 | z2 e4 c2 | c8 | z4 z2 B2- | B2 A2 A4 | %34
w: les ca- no-|ra, pro-|les ca- no-|ra, plan-|* gi- te,|plan- gi-|te,|plan|_ gi- te,|
 z2 e2 e2 c2 | f6 e2 | d2 c2 (3B3 c d2 | (3G3 A B2 c4 | F3 G A4 | D2 d2 d2 B2 | e6 d2 | c2 B2 A4 | %42
w: co- mas cy-|pres- _|_ sus com- * *||* * pri-|mat, co- mas cy-|pres- sus|com- pri- mat,|
 z4 z2 E2 |: c8 | c8 | d8 | c4 z2 c2- | c2 c2 f2 e2 | e4 z2 e2- | e2 e2 f2 e2 | e4 z4 | %51
w: Jos-|qui-|nus|il-|le, il-|* le oc- ci-|dit, il-|* le oc- ci-|dit,|
 e2 g2 d2 f2 | e3 d f2 d2 | e4 c4 | A2 c2 G2 B2 |1 A4 z2 E2 :|2 A4 e4 || z2 e2 f4 | c2 e2 d2 f2- | %59
w: tem- plo- rum de-|cus et ve- strum|de- cus,|et ve- strum de-|cus, Jos-|cus,- _|tem- plo-|rum de- * *|
 fe e2- edcB | c8 || B8 | G4 c4 | B8 | z2 B2 B4 | G4 g4- | g4 e2 g2- | g2 fe d3 e | f2 d2 e4 | A8 | %70
w: |cus.|Se-|ve- ra|mors,|se- ve-|ra mors,|_ et im-||* * pro-|ba,-|
 z4 c4 | B4 A4 | G2 d4 c2 | d8- | d4 G4 | A6 A2 | A4 B4 | c4 A4 | e3 d B2 c2- | c2 BA G4 | e8- | %81
w: et|im- pro-||ba|_ quae|dul- ci|bus so-|nis pri-|||va,|
 e8 | c8- | c8 | z2 c2 d2 e2 | f6 e2 | c4 z4 | z2 A4 G2 | E4 z2 e2- | e2 e2 B2 d2 | A4 B4 | B8- | %92
w: _|||et au- las|prin- ci-|pum,|et au-|las, et|_ au- las prin-|ci- *|pum,|
 B8 | z2 c2 f4- | f2 g2 f2 e2 | d2 f2 g4 | z2 c2 dc BA | c2 B2 A2 c2 | f6 g2 | f2 e2 d3 c | %100
w: _|ma- lum|_ ti- bi quod|im- pre- cer,|ma- lum _ _ _|ti- bi im- pre-|cer, ma-|lum ti- bi quod|
 BA B4 c2 | d4 z2 G2 | c6 B2 | A2 G2 F2 E2 | D2 d4 c2 | B2 A2 z2 G2 | d3 d c2 B2- | B2 A4 G2 | %108
w: im- * * pre-|cer, ma-|lum ti-|bi quod im- pre-|cer, quod im-|pre- cer, ma|lum ti- bi quod|_ im- *|
 A3 B c2 d2 | c2 e3 d d2- | d2 c2 d2 _B2- | B2 A2 z4 | c4 e2 d2 | g4 f2 e2- |: e2 c2 e2 d2 | %115
w: ||* * * pre-|* cer,|tol- len- ti-|bus bo- nos|_ par- cen- ti|
 g4 f2 e2- | e2 d2 e4- | e8- | e4 z2 c2 | A2 B2 c3 B/A/ | G2 A4 G2 | A2 e2 e2 d2 |1 g4 f2 e2 :|2 %123
w: ma- * *|* * lis,|_|* par-|cen- ti ma- * *||lis, tol- len- ti-|bus bo- nos|
 A2 B2 c4 || B8 |] %125
w: cen- ti ma-|lis.|
V:3
 z4 B4- | B4 A4 | c6 B2 | G2 A2 B4- | B2 E2 E4 | z8 | z8 | z8 | z8 | e8 | d4 f4- | f2 e2 c3 d | %12
w: Mu-|* sae|Jo- vis|ter ma- *|* xi- mi,|||||mu-|sae Jo-|* vis ter _|
w: ||||||||||||
 e2 f3 e d2- | dc BA B4- | B2 B2 B4 | d6 c2 | A2 B2 c2 A2- | AG G3 FED | E6 E2 | E4 z2 c2 | %20
w: _ ma- * *||* xi- mi,|mu- sae|Jo- vis ter ma-||* xi-|mi, pro-|
w: ||||||||
 c2 A2 d4 | e3 d cB A2- | A2 B2 c2 A2 |"^b" A2 F2 B4 | A3 B cd c2- | c2 BA G2 c2 | c2 A2 B4 | %27
w: les ca- no-||* * * ra,|pro- les ca-|no- * * * *|* * * ra, pro-|les ca- no-|
w: |||||||
 A4 z4 | z2 c4 c2 | c4 z4 | B6 A2 | A8 | z4 G4- | G2 E2 E4- | E4 z4 | z8 | z8 | z2 e2 e2 c2 | %38
w: ra,|pian- gi-|te,|pian- gi-|te,|pian-|* gi- te,|_|||co- mas cy-|
w: |||||||||||
 f4 f2 e2 | d3 c (3B3 c d2 | (3G3 A B2 c3 B | A2 d2 d2 c2 | d3 A c2 B2 |: A4 z4 | z2 E2 G4- | %45
w: pres- sus com-|||mat, co- mas cy-|pres- sus com- pri-|mat,|Jos- qui-|
w: |||||2..cus,||
 G2 F2 _B4 | G8- | G4 z2 G2- | G2 G2 A2 G2 | G4 z2 G2- | G2 G2 A2 G2 | G4 z4 | z2 B2 d2 A2 | %53
w: * nus il-|le,|_ il-|* le oc- ci-|dit, il-|* le oc- ci-|dit,|tem- plo- rum|
w: ||||||||
 B4 A2 c2- | c2 BA B3 B |1 d2 A2 B4 :|2 A8 || A2 c2 F2 A2- | AGFE F4 | E8- | E8 || e8 | e4 e4 | %63
w: de- cus, et|_ _ _ ve- strum|de- * *|de-|cus, tem- plo- rum|_ _ _ _ de-|cus.|_|Se-|ve- ra|
w: ||||||||||
 d8- | d8 | z4 e4 | e4 e4 | d4 B2 d2- | dc AB cdec | d2 z2 c4 | B4 A4 | G4 z2 F2 | _B4 A4 | %73
w: mors,|_|se-|ve- ra|mors, [et im-|* * pro- * * * * *|ba,] et|im- pro-|ba quae|tem- pla,|
w: ||||||||||
 z2 F2 _B4 | A4 z2 c2- | c2 c2 c4 | d3 c BA G2- | G2 c4 BA | B2 c2 G4- | G4 z2 e2- | e2 g3 f e2- | %81
w: quae tem-|pla dul-|* ci- bus|so- * * * *||* * nis,|_ pri-||
w: ||||||||
 e2 dc B2 G2 | A2 G2 A4- | A2 G2 G4- | G4 z4 | z8 | z2 c2 B2 c2 | A3 B cd e2- | e2 dc B2 c2- | %89
w: * * * vas, et|au- las prin-|* ci- pum,|_||et au- las|prin- * * * *||
w: ||||||||
 c2 BA G2 A2- | AG E2 F4 | E8- | E8 | z8 | z4 z2 A2 | d6 e2 | d2 c2 B2 d2 | e4 z4 | z8 | %99
w: |* * * ci-|pum,|_||mul-|tum quod|im- pre- cer, _|_||
w: ||||||||||
 z2 A2 d4- | d2 e2 d2 c2 | B2 d2 e4- | e4 z4 | z8 | z4 A4 | d6 c2 | B2 A2 G2 F2 | E4 z4 | z8 | z8 | %110
w: ma- lum|_ ti- bi quod|im- pre- cer,|_||ma-|lum ti-|bi quod im- pre-|cer,|||
w: |||||||||||
"^b" z2 A2 B2 G2 | d4 c2 e2- | ed c3 B/A/ B2 | c3 C F2 G2 |: A4 G4 | E2 c2 A2 c2- | cB A4 G2 | %117
w: tol- len- ti|bo- nos, par-||cen- * * ti|ma- *|lis, [par- cen- ti|_ _ ma- *|
w: |||||||
 A4 E4- | E8- | E8- | E4 z2 E2 | E2 C2 G4 |1 C3 C F2 G2 :|2 E8- || E8 |] %125
w: * lis,|_||* tol-|len- ti bo-|nos, par- cen- ti|(lis.)|_|
w: ||||||||
V:4
 E,8 | D,4 F,4- | F,2 E,2 C,2 D,2 | E,6 E,2 | E,4 z4 | z8 | z8 | z8 | z4 A,4- | A,4 G,4 | %10
w: |Mu- sae|_ Jo- vis ter|ma- xi-|mi,||||mu-|* sae|
 _B,6 A,2 | F,2 G,2 A,4- | A,2 D,2 D,4 | z8 | E,8 | D,4 F,4- | F,2 E,2 C,2 D,2 | E,6 A,,2 | A,,8- | %19
w: Jo- vis|ter _ ma-|* xi- mi,||mu-|sae Jo-|* vis ter ma-|* xi-|mi,|
 A,,4 z2 A,2 |"^b" A,2 F,2 B,4 | A,8 | z8 | z8 | z8 | z2 E,2 E,2 C,2 | F,4 E,4 | z8 | C,6 C,2 | %29
w: _ pro-|les ca- no-|ra,||||pro- les ca-|no- ra,||pian- gi-|
 C,4 z4 | E,6 A,,2 | A,,8 | z4 E,4- | E,2 A,,2 A,,4- | A,,4 z2 A,2 |"^b" A,2 F,2 B,4- | %36
w: te,|pian- gi-|te,|pian-|gi gi- te,|_ co-|mas cy- pres-|
 B,2 A,2 G,3 F, | E,4 z4 | z8 | z4 z2 G,2 | G,2 E,2 A,4- | A,2 G,2 F,3 E, | D,2 F,2 E,4 |: %43
w: * sus com- pri-|mat,||co-|mas cy- pres-|* sus com- *|* pri- mat,|
 z2 A,,2 C,4- | C,4 C,4 | _B,,8 | C,8- | C,4 z2 C,2- | C,2 C,2 F,2 E,2 | E,4 z2 E,2- | %50
w: Jos- qui-|* nus|il-|le,|_ il-|* le oc- ci-|dit, il|
"^#" E,2 E,2 F,2 E,2 |"^#" E,4 z4 | E,2 G,2 D,2 F,2 | E,4 A,,4- | A,,4 E,2 G,2 |1 D,2 F,2 E,4 :|2 %56
w: _ le oc- ci-|dit,|tem- plo- rum de-|* cus,|_ et ve-|strum de- cus-|
 D,2 F,2 E,4 || A,,4 z2 D,2 | F,2 C,2 D,4 | A,,8- | A,,8 || E,8 | E,4 C,4 | G,8- | G,8 | z4 E,4 | %66
w: strum de- *|cus, tem-|plo- rum de-|cus.|_|Se-|ve- ra|mors,|_|se-|
 E,4 C,4 | G,6 G,2 | F,4 E,4 | D,3 C, A,,2 C,2 | G,,2 G,4 F,2 | G,2 G,,2 D,4 | z8 | D,8 | D,4 E,4 | %75
w: ve- ra|mors, et|im- pro-|ba, _ _ et|im- * *|* pro- ba||quae|tem- pla|
 F,6 F,2 | F,4 G,4 | C,4 F,4 | E,8- | E,8- | E,8 | z4 E,4 | F,2 E,2 F,4- | F,2 E,2 C,4- | C,4 z4 | %85
w: dul- ci-|bua so-||nis,|_||et|au- las prin-|* ci- pum,|_|
 z8 | z2 C,2 D,2 E,2 | F,6 E,2 | C,3 D, E,2 A,,2 | C,3 D, E,2 D,2- | D,2 C,2 B,,4 | E,,8- | E,,8 | %93
w: |et au- las|prin- *|||* * ci-|pum,|_|
 z8 | z8 | z2 D,2 G,4- | G,2 A,2 G,3 F, | E,2 G,2 A,4 | z8 | z4 z2 D,2 | G,6 A,2 | G,2 F,2 E,3 D, | %102
w: ||mul- tum|_ ti- bi quod|im- pre- cer,||ma-|lum ti-|bi quod im- pre-|
 C,8 | z8 | z8 | D,4 G,4 | G,2 F,2 E,2 D,2 | C,4 B,,4 | A,,2 A,4 G,2 | A,2 E,2 F,3 G, | A,4 z4 | %111
w: cer,|||ma- lum|ti- bi quod im-|* pre-|||cer,|
 z2 D,2 F,2 E,2 | A,4 G,4 | C,4 z4 |: z8 | z2 C,2 D,2 C,2 | F,4 E,4 | A,,4 z2 C,2 | %118
w: tol- len- ti|bo- *|nos,||par- cen- ti|ma- *|lis, par-|
 A,,2 C,3 B,, A,,2- | A,,2 G,,2 A,,4 | E,,8 | A,,4 G,,4 |1 z8 :|2 A,,2 G,,2 A,,4 || E,,8 |] %125
w: cen- ti _ _|_ _ ma-||* lis,||(ti) _ mma-|lis.|

